X:1
T:I Will Praise Thee
T:I Will Praise Thee
T:James McGranahan
T:Daniel Webster Whittle, 1890
T:Public Domain Courtesy of the Cyber Hymnal™
T:Public Domain Courtesy of the Cyber Hymnal™
C:James McGranahan
Z:Public Domain
Z:Courtesy of the Cyber Hymnal™
%%score ( 1 2 ) ( 3 4 )
L:1/8
Q:1/4=98
M:4/4
K:C
V:1 treble 
V:2 treble 
V:3 bass 
V:4 bass 
V:1
 [Ec]2 ([CE][DF]) [EG]3 [EG] | ([FA][GB]) ([Ac][Bd]) c2 [EG]2 | [^Fc]2 (BA) (B d2) [Gc] | %3
w: 1.~I will * praise the|Lord * my * glo- ry,|I will * praise * the|
w: 2.~I will * praise the|Lord * my * pro- phet,|Ho- ly * priest * and|
w: 3.~I will * praise the|Lord * my * shep- herd,|Keep- er, * Pas- * ture,|
w: 4.~I will * praise the|Lord * my * Fa- ther,|Sav- ior, * bro- * ther,|
w: 5.~I will * love Him,|I * will * trust Him,|All the * rem- * nant|
 [GB]2 [^FA]2 G4 | (GB) (Bd) [Gd]3 [FG] | (Gc) ([Ec][Ge]) [Ge]2 [Fd]2 | [Ec]3 [Ec] (d c2) [FA] | %7
w: Lord my light;|He * my * cloud by|day * to * co- ver,|He my fire * to|
w: right- eous king;|With * the * an- gels|who * a- * dore Him,|“Ho- ly, ho- * ly,”|
w: Door and Fold;|O’er * the * lone- ly|hills * He * sought me,|When the night * was|
w: guide and friend;|He * thus * far in|life * hath * led me,|He will lead * me|
w: of my days;|And * will * sing thro’|end- * less * ag- es,|On- ly my * Re-|
 [FG]2 [FB]2 [Ec]4 ||"^Refrain" (CE) (EG) G2 E[EG] | [FA]2 [FB]2 [Ec]2 [Ge]2 | %10
w: guide by night.|||
w: I will sing.|||
w: dark and cold.|I * will * praise Thee with|my whole heart, Will|
w: to the end.|||
w: deem- er’s praise.|||
 ([Gd]3 [^Fc]) [GB]2 [DA]2 | [DG]6 z2 | [DG]2 [GB][Gd] [Gf]2 [Gd]G | [Gc]2 [Gd]2 [Ge]2 ([Af][Fd]) | %14
w: ||||
w: ||||
w: praise * Thee, O|Lord;|I will be glad and re-|joice in Thee, O *|
w: ||||
w: ||||
 [Ec]4 B4 | [Ec]8 |] %16
w: ||
w: ||
w: Thou most|high.|
w: ||
w: ||
V:2
 x8 | x4 c2 x2 | x2 ^F2 G3 x | x4 G4 | G2 G2 x4 | E2 x6 | x4 F3 x | x8 || x4 G2 E x | x8 | x8 | %11
 x8 | x7 G | x8 | x4 (D2 F2) | x8 |] %16
V:3
 [C,G,]2 [C,G,]2 [C,C]3 [C,C] | ([F,A,][G,B,]) ([A,C][B,D]) [CE]2 [C,C]2 | %2
 [D,A,]2 [D,D]2 (D B,2) [C,E] | [D,D]2 [D,C]2 [G,,G,B,]4 | (B,D) (DB,) [G,B,]3 [G,B,] | %5
 (CG,) (G,C) C2 B,2 | [A,C]3 [A,C] [F,A,]3 [F,D] | [G,D]2 (DG,) [C,G,]4 || %8
 (C,E,) (E,G,) G,2 E,[C,C] | C2 [D,G,]2 [C,G,]2 [C,C]2 | (B,3 A,) [D,D]2 [D,C]2 | [G,B,]6 z2 | %12
 [G,B,]2 [G,D][G,B,] [G,B,]2 [G,B,][F,B,] | [E,C]2 [G,B,]2 C2 (CA,) | G,4 [G,,G,]4 | [C,G,]8 |] %16
V:4
 x8 | x8 | x4 G,3 x | x8 | G,2 G,2 x4 | C,2 C,2 (C,E,) (G,^G,) | x8 | x2 G,,2 x4 || x4 G,2 E, x | %9
 x8 | D,4 x4 | x8 | x8 | x4 C2 F,2 | G,4 x4 | x8 |] %16

